icons/modern/admission-tickets.svg

<svg width="32" height="32" viewBox="0 0 32 32" fill="none" xmlns="http://www.w3.org/2000/svg">
<g filter="url(#filter0_iii_18_1325)">
<path d="M29.305 19.4C28.675 19.4 28.165 18.89 28.165 18.26C28.165 17.63 28.675 17.12 29.305 17.12H29.525C29.785 17.12 30.005 16.91 30.005 16.64V15.37C30.005 15.11 29.795 14.89 29.525 14.89H29.345C28.715 14.89 28.175 14.4 28.165 13.77C28.155 13.13 28.665 12.61 29.305 12.61H29.525C29.785 12.61 30.005 12.4 30.005 12.13V10.57C30.005 10.33 29.825 10.13 29.585 10.1C28.155 9.91001 27.015 8.79 26.795 7.37C26.755 7.1 26.515 6.89001 26.235 6.89001H5.745C5.465 6.89001 5.225 7.09 5.185 7.37C4.965 8.78 3.835 9.89 2.415 10.09C2.175 10.12 1.995 10.32 1.995 10.56V12.13C1.995 12.39 2.20499 12.61 2.47499 12.61H2.65499C3.28499 12.61 3.825 13.1 3.835 13.73C3.845 14.37 3.335 14.89 2.695 14.89H2.47499C2.21499 14.89 1.995 15.1 1.995 15.37V16.64C1.995 16.9 2.20499 17.12 2.47499 17.12H2.695C3.325 17.12 3.835 17.63 3.835 18.26C3.835 18.89 3.325 19.4 2.695 19.4H2.47499C2.21499 19.4 1.995 19.61 1.995 19.88V21.46C1.995 21.7 2.175 21.9 2.415 21.93C3.835 22.12 4.965 23.23 5.185 24.64C5.225 24.91 5.465 25.11 5.745 25.11H26.255C26.535 25.11 26.775 24.91 26.815 24.64C27.035 23.23 28.165 22.12 29.575 21.93C29.815 21.9 29.995 21.7 29.995 21.46V19.88C29.995 19.62 29.785 19.4 29.515 19.4H29.305Z" fill="url(#paint0_linear_18_1325)"/>
</g>
<path fill-rule="evenodd" clip-rule="evenodd" d="M6.25989 11.98C6.25989 10.7235 7.27658 9.69495 8.54494 9.69495H23.4549C24.7233 9.69495 25.74 10.7235 25.74 11.98V20C25.74 21.2565 24.7233 22.285 23.4549 22.285H20.45C20.4175 22.2979 20.382 22.305 20.3449 22.305C20.3078 22.305 20.2724 22.2979 20.2399 22.285H11.76C11.7275 22.2979 11.692 22.305 11.6549 22.305C11.6178 22.305 11.5824 22.2979 11.5499 22.285H8.54494C7.28844 22.285 6.25989 21.2683 6.25989 20V11.98ZM20.63 21.7149H23.4549C24.4066 21.7149 25.1699 20.9435 25.1699 20V11.98C25.1699 11.0365 24.4066 10.265 23.4549 10.265H20.63V21.7149ZM20.0599 10.265V21.7149H11.94V10.265H20.0599ZM8.54494 10.265H11.3699V21.7149H8.54494C7.60144 21.7149 6.82999 20.9516 6.82999 20V11.98C6.82999 11.0365 7.59329 10.265 8.54494 10.265Z" fill="url(#paint1_linear_18_1325)"/>
<path d="M9.08503 12.17C8.57503 12.17 8.15503 12.59 8.15503 13.1V18.74C8.15503 19.25 8.57503 19.67 9.08503 19.67C9.59503 19.67 10.015 19.25 10.015 18.74V13.1C10.015 12.58 9.59503 12.17 9.08503 12.17Z" fill="#C43B66"/>
<path d="M23.0249 12.17C22.5149 12.17 22.0949 12.59 22.0949 13.1V18.74C22.0949 19.25 22.5149 19.67 23.0249 19.67C23.5349 19.67 23.9549 19.25 23.9549 18.74V13.1C23.9549 12.58 23.5349 12.17 23.0249 12.17Z" fill="#C53C66"/>
<path d="M15.9951 18.29C17.061 18.29 17.9251 17.4259 17.9251 16.36C17.9251 15.2941 17.061 14.43 15.9951 14.43C14.9292 14.43 14.0651 15.2941 14.0651 16.36C14.0651 17.4259 14.9292 18.29 15.9951 18.29Z" fill="#C43B66"/>
<defs>
<filter id="filter0_iii_18_1325" x="1.495" y="6.39001" width="29.01" height="18.72" filterUnits="userSpaceOnUse" color-interpolation-filters="sRGB">
<feFlood flood-opacity="0" result="BackgroundImageFix"/>
<feBlend mode="normal" in="SourceGraphic" in2="BackgroundImageFix" result="shape"/>
<feColorMatrix in="SourceAlpha" type="matrix" values="0 0 0 0 0 0 0 0 0 0 0 0 0 0 0 0 0 0 127 0" result="hardAlpha"/>
<feOffset dx="-0.5"/>
<feGaussianBlur stdDeviation="0.25"/>
<feComposite in2="hardAlpha" operator="arithmetic" k2="-1" k3="1"/>
<feColorMatrix type="matrix" values="0 0 0 0 1 0 0 0 0 0.55 0 0 0 0 0.769156 0 0 0 1 0"/>
<feBlend mode="normal" in2="shape" result="effect1_innerShadow_18_1325"/>
<feColorMatrix in="SourceAlpha" type="matrix" values="0 0 0 0 0 0 0 0 0 0 0 0 0 0 0 0 0 0 127 0" result="hardAlpha"/>
<feOffset dx="0.5"/>
<feGaussianBlur stdDeviation="0.25"/>
<feComposite in2="hardAlpha" operator="arithmetic" k2="-1" k3="1"/>
<feColorMatrix type="matrix" values="0 0 0 0 0.909804 0 0 0 0 0.403922 0 0 0 0 0.427451 0 0 0 1 0"/>
<feBlend mode="normal" in2="effect1_innerShadow_18_1325" result="effect2_innerShadow_18_1325"/>
<feColorMatrix in="SourceAlpha" type="matrix" values="0 0 0 0 0 0 0 0 0 0 0 0 0 0 0 0 0 0 127 0" result="hardAlpha"/>
<feOffset dy="-0.5"/>
<feGaussianBlur stdDeviation="0.5"/>
<feComposite in2="hardAlpha" operator="arithmetic" k2="-1" k3="1"/>
<feColorMatrix type="matrix" values="0 0 0 0 0.811765 0 0 0 0 0.164706 0 0 0 0 0.439216 0 0 0 1 0"/>
<feBlend mode="normal" in2="effect2_innerShadow_18_1325" result="effect3_innerShadow_18_1325"/>
</filter>
<linearGradient id="paint0_linear_18_1325" x1="1.995" y1="17.375" x2="30.005" y2="17.375" gradientUnits="userSpaceOnUse">
<stop stop-color="#ED3558"/>
<stop offset="1" stop-color="#FF51A8"/>
</linearGradient>
<linearGradient id="paint1_linear_18_1325" x1="8.61993" y1="15.3125" x2="24.3074" y2="15.3125" gradientUnits="userSpaceOnUse">
<stop stop-color="#C43B66"/>
<stop offset="1" stop-color="#C63C66"/>
</linearGradient>
</defs>
</svg>

<svg width="32" height="32" fill="none" xmlns="http://www.w3.org/2000/svg"><g filter="url(#a)"><path d="M29.305 19.4a1.14 1.14 0 1 1 0-2.28h.22c.26 0 .48-.21.48-.48v-1.27a.48.48 0 0 0-.48-.48h-.18c-.63 0-1.17-.49-1.18-1.12-.01-.64.5-1.16 1.14-1.16h.22c.26 0 .48-.21.48-.48v-1.56c0-.24-.18-.44-.42-.47a3.267 3.267 0 0 1-2.79-2.73.57.57 0 0 0-.56-.48H5.745c-.28 0-.52.2-.56.48a3.268 3.268 0 0 1-2.77 2.72c-.24.03-.42.23-.42.47v1.57c0 .26.21.48.48.48h.18c.63 0 1.17.49 1.18 1.12.01.64-.5 1.16-1.14 1.16h-.22a.48.48 0 0 0-.48.48v1.27c0 .26.21.48.48.48h.22a1.14 1.14 0 1 1 0 2.28h-.22a.48.48 0 0 0-.48.48v1.58c0 .24.18.44.42.47 1.42.19 2.55 1.3 2.77 2.71.04.27.28.47.56.47h20.51c.28 0 .52-.2.56-.47a3.246 3.246 0 0 1 2.76-2.71c.24-.03.42-.23.42-.47v-1.58a.48.48 0 0 0-.48-.48h-.21Z" fill="url(#b)"/></g><path fill-rule="evenodd" clip-rule="evenodd" d="M6.26 11.98a2.284 2.284 0 0 1 2.285-2.285h14.91a2.285 2.285 0 0 1 2.285 2.285V20a2.284 2.284 0 0 1-2.285 2.285H20.45a.284.284 0 0 1-.21 0h-8.48a.284.284 0 0 1-.21 0H8.545A2.284 2.284 0 0 1 6.26 20v-8.02Zm14.37 9.735h2.825c.952 0 1.715-.771 1.715-1.715v-8.02c0-.944-.763-1.715-1.715-1.715H20.63v11.45Zm-.57-11.45v11.45h-8.12v-11.45h8.12Zm-11.515 0h2.825v11.45H8.545A1.714 1.714 0 0 1 6.83 20v-8.02c0-.944.763-1.715 1.715-1.715Z" fill="url(#c)"/><path d="M9.085 12.17c-.51 0-.93.42-.93.93v5.64c0 .51.42.93.93.93s.93-.42.93-.93V13.1c0-.52-.42-.93-.93-.93Z" fill="#C43B66"/><path d="M23.025 12.17c-.51 0-.93.42-.93.93v5.64c0 .51.42.93.93.93s.93-.42.93-.93V13.1c0-.52-.42-.93-.93-.93Z" fill="#C53C66"/><path d="M15.995 18.29a1.93 1.93 0 1 0 0-3.86 1.93 1.93 0 0 0 0 3.86Z" fill="#C43B66"/><defs><linearGradient id="b" x1="1.995" y1="17.375" x2="30.005" y2="17.375" gradientUnits="userSpaceOnUse"><stop stop-color="#ED3558"/><stop offset="1" stop-color="#FF51A8"/></linearGradient><linearGradient id="c" x1="8.62" y1="15.313" x2="24.307" y2="15.313" gradientUnits="userSpaceOnUse"><stop stop-color="#C43B66"/><stop offset="1" stop-color="#C63C66"/></linearGradient><filter id="a" x="1.495" y="6.39" width="29.01" height="18.72" filterUnits="userSpaceOnUse" color-interpolation-filters="sRGB"><feFlood flood-opacity="0" result="BackgroundImageFix"/><feBlend in="SourceGraphic" in2="BackgroundImageFix" result="shape"/><feColorMatrix in="SourceAlpha" values="0 0 0 0 0 0 0 0 0 0 0 0 0 0 0 0 0 0 127 0" result="hardAlpha"/><feOffset dx="-.5"/><feGaussianBlur stdDeviation=".25"/><feComposite in2="hardAlpha" operator="arithmetic" k2="-1" k3="1"/><feColorMatrix values="0 0 0 0 1 0 0 0 0 0.55 0 0 0 0 0.769156 0 0 0 1 0"/><feBlend in2="shape" result="effect1_innerShadow_18_1325"/><feColorMatrix in="SourceAlpha" values="0 0 0 0 0 0 0 0 0 0 0 0 0 0 0 0 0 0 127 0" result="hardAlpha"/><feOffset dx=".5"/><feGaussianBlur stdDeviation=".25"/><feComposite in2="hardAlpha" operator="arithmetic" k2="-1" k3="1"/><feColorMatrix values="0 0 0 0 0.909804 0 0 0 0 0.403922 0 0 0 0 0.427451 0 0 0 1 0"/><feBlend in2="effect1_innerShadow_18_1325" result="effect2_innerShadow_18_1325"/><feColorMatrix in="SourceAlpha" values="0 0 0 0 0 0 0 0 0 0 0 0 0 0 0 0 0 0 127 0" result="hardAlpha"/><feOffset dy="-.5"/><feGaussianBlur stdDeviation=".5"/><feComposite in2="hardAlpha" operator="arithmetic" k2="-1" k3="1"/><feColorMatrix values="0 0 0 0 0.811765 0 0 0 0 0.164706 0 0 0 0 0.439216 0 0 0 1 0"/><feBlend in2="effect2_innerShadow_18_1325" result="effect3_innerShadow_18_1325"/></filter></defs></svg>
